X:1
T:Title
%%score { ( 1 3 ) | ( 2 4 ) }
L:1/8
Q:1/4=100
M:6/8
K:E
V:1 treble nm="Grand Piano"
V:3 treble 
V:2 bass 
V:4 bass 
V:1
 [B,GB]2 [B,GB] [B,EG]2 [B,FA] | [B,GB]3 [B,EG][B,EG][B,EG] | z3 .D3 |[M:5/8] [G,E]-[G,E]- [G,E]3 | %4
w: Lowell~Mason * * *||||
[M:3/4] [B,GB]2 [B,GB] [B,EG]2 [B,FA] | [B,GB]3 [B,EG] [B,EG][B,EG] | z2 z .D3 | %7
w: |||
[M:5/8] [G,E]-[G,E]- [G,E]3 |[M:1/8] B, |[M:3/4] EE EE DE | [DF]2 [DF] [DF]2 [DF] | %11
w: ||||
 [DF]2 [DF][DF] [CE][DF] | G2 G G3 | [DB]3 [DB]2 [DB] | [DB]3 [DF]3 | d3 c2 c | [DB]6 | %17
w: ||||||
 [DB]3 [DB]2 [DB] | [DB]3 [DF]3 | d3 c2 c |[M:5/8] [DB]-[DB]- [DB]3 |[M:1/8] [FA] | %22
w: |||||
[M:3/4] GG GG A[B,GB] | [EAc]4- [EAc]c | cc c[ce] d[EAc] | [EGB]3 [B,GB]2 [B,GB] | [EGB]3 [B,EG]3 | %27
w: |||||
 [EGB]3 [B,EG]3 | [G,E]3 [DF] E[B,DF] | [B,EG]3 [B,GB]2 [B,GB] | [EGB]3 [B,EG]3 | [EGB]3 [B,EG]3 | %32
w: |||||
 [G,E]3 [A,DF] E[A,DF] | [G,E]6 |] %34
w: ||
V:2
 E,2 E, E,2 E, | E,3 E,E,E, | B,,2 B,, z B,B,, |[M:5/8] E,-E,- E,3 |[M:3/4] E,2 E, E,2 E, | %5
 E,3 E, E,E, | B,,2 .B,,2 B,B,, |[M:5/8] E,-E,- E,3 |[M:1/8] B,, | %9
[M:3/4] [E,G,B,][E,G,B,] [E,G,B,][G,B,] [F,A,B,][E,G,B,] | [B,,B,]2 [B,,B,] [B,,B,]2 [B,,B,] | %11
 [B,,B,]2 [B,,B,][B,,B,] [B,,B,][B,,B,] | [E,B,E]2 [E,B,E] [E,B,E]3 | [B,,B,]3 [B,,F,]2 [B,,F,] | %14
 [B,,F,]3 [B,,B,]3 | [F,B,F]3 [F,^A,E]2 [F,A,E] | [B,,B,]6 | [B,,F,]3 [B,,F,]2 [B,,F,] | %18
 [B,,F,]3 [B,,B,]3 | [F,B,F]3 [F,^A,E]2 [F,A,E] |[M:5/8] [B,,B,]-[B,,B,]- [B,,B,]3 | %21
[M:1/8] [B,,B,] |[M:3/4] [E,B,E][E,B,E] [E,B,E]E FE, | A,,4- A,,[K:treble][A,EA] | %24
 [A,EA][A,EA] .[A,EA]2 B[K:bass]A, | E,3 E,2 E, | E,3 E,3 | E,3 E,3 | E,4 CB,, | E,3 E,2 E, | %30
 E,3 E,3 | E,3 E,3 | E,4 G,B,, | E,6 |] %34
V:3
 x6 | x6 | [A,DF]2 [A,DF] [A,F]G[A,DF] |[M:5/8] x5 |[M:3/4] x6 | x6 | [A,DF]2 [A,DF][A,F] G[A,DF] | %7
[M:5/8] x5 |[M:1/8] x |[M:3/4] x6 | x6 | x6 | x6 | x6 | x6 | x6 | x6 | x6 | x6 | x6 |[M:5/8] x5 | %21
[M:1/8] x |[M:3/4] x6 | x6 | x6 | x6 | x6 | x6 | x6 | x6 | x6 | x6 | x6 | x6 |] %34
V:4
 x6 | x6 | z3 .B,,3 |[M:5/8] x5 |[M:3/4] x6 | x6 | z2 z .B,,3 |[M:5/8] x5 |[M:1/8] x |[M:3/4] x6 | %10
 x6 | x6 | x6 | x6 | x6 | x6 | x6 | x6 | x6 | x6 |[M:5/8] x5 |[M:1/8] x |[M:3/4] z2 z .[E,B,]3 | %23
 x5[K:treble] x | z2 z .[A,E]3[K:bass] | x6 | x6 | x6 | z2 z .[B,,B,]3 | x6 | x6 | x6 | %32
 z2 z .B,,3 | x6 |] %34

